X:35
T:Mother quoth Hodge the new way. Ru1.035
%%VWML:RutherfordVol1-2248-p18-0p18
Z:Transcription by Village Music Project, Steve Mansfield July 2015
F:http://www.village-music-project.org.uk/
F:http://www.vwml.org/record/RutherfordVol1/2248/p18
L:1/8
W:Cast off one Cou. .| Cast up again :| The first Man
W:bows to his Partner then bow to the Sides, cross over
W:and half Figure .|. Then bow to your Partner & bow
W:to the Sides Right Hand & Left :|
Q:3/8=90
N:NB 6/8 Time signature marking inserted by transcriber
N:(tune reverts to barring in 6/8 at the Allegro marking in Mss)
K:D
|:A>BA d2d | efg f3 | gBB c2d | edc d3 :|
[M:3/8][Q:3/8=60]"Largo" d/e/ | f2d | B2 c/d/ | e2c | A2A |
"NB"[M:6/8][Q:3/8=90]"Allegro" dcd BcA | BA^G A2A | dcd Bcd | ede cde |
fgf efd | edc d3 :|
T:Country Farmer. Ru1.036
B:Rutherford's Country Dances Vol 1, 1756
Z:village music project, Steve Mansfield July 2015
M:6/8
L:1/8
W:Cast off one Cou. .| Cast up again :| Cross over
W:and turn your Partner .|. The 2d Cou. doe the
W:same :||: The first Man leads his Partner behind
W:the 2d Man & leaves her in the 2d Man's Place
W:then lead through the Man's Sides & half
W:Figure with your Partner at Top :|
Q:3/8=90
K:G
|:D | EFG GFE | A2A ABc | BAG FED | G2G G2 :|
|: c | Bcd efg | d2d dcB | cde efg | A2A A2B |
cde dcB | ABG c2B | ABG FED | G3- G2 :|
